32x32/apps/com.github.artemanufrij.showmypictures.svg

<svg xmlns="http://www.w3.org/2000/svg" width="32" height="32" version="1">
 <rect style="opacity:0.2" width="25" height="28" x="-28" y="3" rx="1.389" ry="1.4" transform="scale(-1,1)"/>
 <rect style="fill:#f4f4f7" width="25" height="28" x="-28" y="2" rx="1.389" ry="1.4" transform="scale(-1,1)"/>
 <path style="fill:#2b629b" d="M 25,5 6,5 6,15 25,15 Z"/>
 <ellipse style="fill:#ff9600" cx="15" cy="15" rx="3" ry="3"/>
 <path style="opacity:0.2;fill:#f4f4f7" d="M 15 12 A 3 3.0000002 0 0 0 12 15 A 3 3.0000002 0 0 0 12.042969 15.513672 A 3 3.0000002 0 0 1 15 13 A 3 3.0000002 0 0 1 17.957031 15.486328 A 3 3.0000002 0 0 0 18 15 A 3 3.0000002 0 0 0 15 12 z"/>
 <path style="fill:#0c939f" d="m 6,15 0,9 19,0 0,-9 z"/>
 <path style="opacity:0.2" d="M 12 16 C 12 16 12.459477 16.85461 12.5 17.472656 C 12.53631 18.025852 11.988382 18.407282 12 18.962891 C 12.01483 19.671736 12.948346 19.927846 13 20.632812 C 13.03999 21.177253 12.480611 21.787051 12.5 22.333984 C 12.52625 23.075027 13.4042 23.314183 13.738281 23.861328 C 13.756537 23.891226 13.783746 23.960024 13.804688 24 L 16.492188 24 C 16.439845 23.231723 16.016015 23.22214 16 22.419922 C 15.9903 21.927397 16.922299 22.05298 17 21.574219 C 17.0864 21.041806 15.905985 20.511927 16 19.982422 C 16.133258 19.231981 17.93248 19.311395 17.998047 18.541016 C 18.043707 18.004969 17.472675 17.7615 17.5 17.222656 C 17.528723 16.654075 17.998047 16 17.998047 16 L 12 16 z"/>
 <path style="fill:#fded63" d="m 12.000154,15 c 0,0 0.459323,0.85397 0.499846,1.472016 0.03631,0.553196 -0.511464,0.935958 -0.499846,1.491567 0.01483,0.708845 0.948192,0.96486 0.999846,1.669827 0.03999,0.544441 -0.519389,1.153784 -0.5,1.700717 0.02625,0.741043 0.904571,0.97958 1.238652,1.526725 C 13.917285,23.153395 14.249263,24 14.249263,24 l 1.874255,0 c 0,0 0.395072,-0.551502 0.376482,-0.960878 -0.03717,-0.81729 -0.483653,-0.801295 -0.5,-1.620118 -0.0097,-0.492525 0.922299,-0.366453 1,-0.845214 0.0864,-0.532413 -1.094015,-1.061487 -1,-1.590992 0.133258,-0.750441 1.932208,-0.67145 1.997775,-1.441829 C 18.043435,17.004922 17.472675,16.762271 17.5,16.223427 17.528723,15.654846 17.997775,15 17.997775,15 Z"/>
 <path style="opacity:0.2" d="m 8.0204912,8.5596654 c 0,0 0.5160295,-1.2149137 1.1475902,-1.3441924 0.5294261,-0.1083701 1.5394476,0.5939369 1.5394476,0.5939369 0,0 0.945228,-0.985968 1.623425,-0.7814977 0.475966,0.1434888 0.951674,1.1566145 0.951674,1.1566145 0,0 1.454452,0.04068 1.679394,0.7189882 0.217115,0.6547721 -0.541033,1.4876031 -1.147589,1.6567981 -0.595566,0.166132 -1.427496,-0.312617 -1.427496,-0.312617 0,0 -0.663873,0.707273 -1.147586,0.750257 -0.546212,0.04851 -1.5954329,-0.781515 -1.5954329,-0.781515 0,0 -0.7696228,0.820556 -1.4554881,0.656482 C 7.5698773,10.724919 6.8152285,9.8448924 7.0408379,9.1848642 7.1628719,8.8278361 8.0204912,8.5596654 8.0204912,8.5596654 Z"/>
 <path style="fill:#f4f4f7" d="m 8.0204912,7.5596654 c 0,0 0.5160295,-1.2149137 1.1475902,-1.3441924 0.5294261,-0.1083701 1.5394476,0.5939369 1.5394476,0.5939369 0,0 0.945228,-0.985968 1.623425,-0.7814977 0.475966,0.1434888 0.951674,1.1566145 0.951674,1.1566145 0,0 1.454452,0.04068 1.679394,0.7189882 0.217115,0.6547721 -0.541033,1.487603 -1.147589,1.6567984 -0.595566,0.1661313 -1.427496,-0.3126175 -1.427496,-0.3126175 0,0 -0.663873,0.7072728 -1.147586,0.7502575 -0.546212,0.048514 -1.5954329,-0.7815155 -1.5954329,-0.7815155 0,0 -0.7696228,0.8205562 -1.4554881,0.6564822 C 7.5698773,9.7249193 6.8152285,8.8448924 7.0408379,8.1848642 7.1628719,7.8278361 8.0204912,7.5596654 8.0204912,7.5596654 Z"/>
 <path style="opacity:0.2" d="m 19.657236,8.0346049 c -0.484249,0.1406159 -0.95767,1.1746583 -0.95767,1.1746583 0,0 -1.266072,-0.1770246 -1.542909,0.266972 -0.372158,0.5968608 -0.04306,1.7157968 0.585241,2.0289478 0.442477,0.220512 1.383304,-0.533929 1.383304,-0.533929 0,0 1.023446,1.170182 1.649314,1.01448 0.540244,-0.134416 0.904459,-1.02783 0.904459,-1.02783 0,0 0.935415,0.883309 1.542911,0.58733 0.886703,-0.432032 1.03445,-2.1888655 0.345837,-2.8966026 -0.411866,-0.4232979 -1.516316,0.1868766 -1.516316,0.1868766 0,0 -1.586095,-1.0355559 -2.394171,-0.8009031 z"/>
 <path style="fill:#f4f4f7" d="m 19.657236,7.0346049 c -0.484249,0.1406159 -0.95767,1.1746583 -0.95767,1.1746583 0,0 -1.266072,-0.1770246 -1.542909,0.266972 -0.372158,0.5968606 -0.04306,1.7157968 0.585241,2.0289478 0.442477,0.220512 1.383304,-0.5339295 1.383304,-0.5339295 0,0 1.023446,1.1701825 1.649314,1.0144805 0.540244,-0.134416 0.904459,-1.0278298 0.904459,-1.0278298 0,0 0.935415,0.8833088 1.542911,0.5873298 0.886703,-0.432032 1.03445,-2.1888655 0.345837,-2.8966026 -0.411866,-0.4232979 -1.516316,0.1868766 -1.516316,0.1868766 0,0 -1.586095,-1.0355559 -2.394171,-0.8009031 z"/>
 <path style="fill:#f4f4f7;opacity:0.2" d="M 4.3886719 2 C 3.6192275 2 3 2.6247906 3 3.4003906 L 3 4.4003906 C 3 3.6247906 3.6192275 3 4.3886719 3 L 26.611328 3 C 27.380773 3 28 3.6247906 28 4.4003906 L 28 3.4003906 C 28 2.6247906 27.380773 2 26.611328 2 L 4.3886719 2 z"/>
 <path style="fill:#f4f4f7;opacity:0.1" d="M 6 15 L 6 16 L 25 16 L 25 15 L 6 15 z"/>
</svg>

<svg xmlns="http://www.w3.org/2000/svg" width="32" height="32" version="1"><rect style="opacity:.2" width="25" height="28" x="-28" y="3" rx="1.389" ry="1.4" transform="scale(-1 1)"/><rect style="fill:#f4f4f7" width="25" height="28" x="-28" y="2" rx="1.389" ry="1.4" transform="scale(-1 1)"/><path style="fill:#2b629b" d="M25 5H6v10h19z"/><circle style="fill:#ff9600" cx="15" cy="15" r="3"/><path style="opacity:.2;fill:#f4f4f7" d="M15 12a3 3 0 0 0-3 3 3 3 0 0 0 .043.514A3 3 0 0 1 15 13a3 3 0 0 1 2.957 2.486A3 3 0 0 0 18 15a3 3 0 0 0-3-3z"/><path style="fill:#0c939f" d="M6 15v9h19v-9z"/><path style="opacity:.2" d="M12 16s.46.855.5 1.473c.036.553-.512.934-.5 1.49.015.709.948.965 1 1.67.04.544-.52 1.154-.5 1.701.026.741.904.98 1.238 1.527.019.03.046.099.067.139h2.687c-.052-.768-.476-.778-.492-1.58-.01-.493.922-.367 1-.846.086-.532-1.094-1.062-1-1.592.133-.75 1.932-.67 1.998-1.441.046-.536-.525-.78-.498-1.318.029-.569.498-1.223.498-1.223H12z"/><path style="fill:#fded63" d="M12 15s.46.854.5 1.472c.036.553-.511.936-.5 1.492.015.708.948.964 1 1.67.04.544-.52 1.153-.5 1.7.026.741.905.98 1.239 1.527.178.292.51 1.139.51 1.139h1.875s.395-.552.376-.96c-.037-.818-.484-.802-.5-1.621-.01-.493.922-.366 1-.845.086-.533-1.094-1.062-1-1.591.133-.75 1.932-.672 1.998-1.442.045-.536-.525-.779-.498-1.318.029-.568.498-1.223.498-1.223z"/><path style="opacity:.2" d="M8.02 8.56s.517-1.215 1.148-1.345c.53-.108 1.54.594 1.54.594s.945-.986 1.623-.781c.476.143.952 1.157.952 1.157s1.454.04 1.679.719c.217.654-.541 1.487-1.148 1.656-.595.166-1.427-.312-1.427-.312s-.664.707-1.148.75c-.546.048-1.595-.782-1.595-.782s-.77.821-1.456.657c-.618-.148-1.373-1.028-1.147-1.688.122-.357.98-.625.98-.625z"/><path style="fill:#f4f4f7" d="M8.02 7.56s.517-1.215 1.148-1.345c.53-.108 1.54.594 1.54.594s.945-.986 1.623-.781c.476.143.952 1.157.952 1.157s1.454.04 1.679.719c.217.654-.541 1.487-1.148 1.656-.595.166-1.427-.312-1.427-.312s-.664.707-1.148.75c-.546.048-1.595-.782-1.595-.782s-.77.821-1.456.657c-.618-.148-1.373-1.028-1.147-1.688.122-.357.98-.625.98-.625z"/><path style="opacity:.2" d="M19.657 8.035c-.484.14-.957 1.174-.957 1.174s-1.267-.177-1.543.267c-.373.597-.043 1.716.585 2.03.442.22 1.383-.535 1.383-.535s1.024 1.17 1.65 1.015c.54-.135.904-1.028.904-1.028s.935.883 1.543.587c.887-.432 1.034-2.189.346-2.896-.412-.424-1.517.187-1.517.187s-1.586-1.036-2.394-.801z"/><path style="fill:#f4f4f7" d="M19.657 7.035c-.484.14-.957 1.174-.957 1.174s-1.267-.177-1.543.267c-.373.597-.043 1.716.585 2.03.442.22 1.383-.535 1.383-.535s1.024 1.17 1.65 1.015c.54-.135.904-1.028.904-1.028s.935.883 1.543.587c.887-.432 1.034-2.189.346-2.896-.412-.424-1.517.187-1.517.187s-1.586-1.036-2.394-.801z"/><path style="fill:#f4f4f7;opacity:.2" d="M4.389 2C3.619 2 3 2.625 3 3.4v1C3 3.625 3.62 3 4.389 3H26.61C27.381 3 28 3.625 28 4.4v-1c0-.775-.62-1.4-1.389-1.4H4.39z"/><path style="fill:#f4f4f7;opacity:.1" d="M6 15v1h19v-1H6z"/></svg>
